X: 6
T: COVENT GARDEN ROW
B: Button & Whitaker "Twelve Elegant New Dances for the year 1810" #6
S: http://imslp.org/wiki/Button_and_Whitaker%27s_Elegant_New_Dances_for_1810_%28Various%29
Z: 2014 John Chambers <jc:trillian.mit.edu>
M: 9/8
L: 1/8
K: D
% - - - - - - - - - - - - - - - - - - - - - - - - -
% Staff layout changed to fit our page size:
V: 1 clef=treble middle=B
|:\
d2A AFA AFA | d2d def g3 |\
e2e efd cde | A2A ABc d3 :|
|:\
a2a aba ^g3 | =g2g gag f3 |\
d2d dcd efg | A2A ABc d3 :|
% - - - - - - - - - - - - - - - - - - - - - - - - -
% Original staff layout preserved:
V: 2 clef=bass middle=d
|:\
d3 d3 d3 | f3 dc=c B3 | ^c3 f3 edc |
c3 A3 d3 :||: A3 A3 B3 | c3 c3 d3 |
f3 fed c=cB | A3 A3 d3 :|
% - - - - - - - - Dance description - - - - - - - -
%%begintext align
%% Allemande with your partner,
%% remain in your places, while the 2d Cu: does the same,
%% down the mid: up again & turn round.
%%endtext
% - - - - - - - - - - - - - - - - - - - - - - - - -
%%sep 2 5 100
